images/50947129.svg

<?xml version="1.0" encoding="UTF-8"?>
<svg xmlns="http://www.w3.org/2000/svg" xmlns:xlink="http://www.w3.org/1999/xlink" width="300pt" height="300pt" viewBox="0 0 300 300" version="1.1">
<defs>
<g>
<symbol overflow="visible" id="glyph0-0">
<path style="stroke:none;" d="M 0.453125 1.59375 L 0.453125 -6.34375 L 4.953125 -6.34375 L 4.953125 1.59375 Z M 0.953125 1.09375 L 4.453125 1.09375 L 4.453125 -5.84375 L 0.953125 -5.84375 Z M 0.953125 1.09375 "/>
</symbol>
<symbol overflow="visible" id="glyph0-1">
<path style="stroke:none;" d="M 3.546875 -5.953125 C 2.898438 -5.953125 2.382812 -5.710938 2 -5.234375 C 1.625 -4.753906 1.4375 -4.101562 1.4375 -3.28125 C 1.4375 -2.445312 1.625 -1.789062 2 -1.3125 C 2.382812 -0.832031 2.898438 -0.59375 3.546875 -0.59375 C 4.191406 -0.59375 4.703125 -0.832031 5.078125 -1.3125 C 5.453125 -1.789062 5.640625 -2.445312 5.640625 -3.28125 C 5.640625 -4.101562 5.453125 -4.753906 5.078125 -5.234375 C 4.703125 -5.710938 4.191406 -5.953125 3.546875 -5.953125 Z M 3.546875 -6.6875 C 4.460938 -6.6875 5.195312 -6.375 5.75 -5.75 C 6.300781 -5.132812 6.578125 -4.3125 6.578125 -3.28125 C 6.578125 -2.238281 6.300781 -1.410156 5.75 -0.796875 C 5.195312 -0.179688 4.460938 0.125 3.546875 0.125 C 2.617188 0.125 1.878906 -0.179688 1.328125 -0.796875 C 0.773438 -1.410156 0.5 -2.238281 0.5 -3.28125 C 0.5 -4.3125 0.773438 -5.132812 1.328125 -5.75 C 1.878906 -6.375 2.617188 -6.6875 3.546875 -6.6875 Z M 3.546875 -6.6875 "/>
</symbol>
<symbol overflow="visible" id="glyph0-2">
<path style="stroke:none;" d="M 0.890625 -6.5625 L 2.078125 -6.5625 L 4.984375 -1.078125 L 4.984375 -6.5625 L 5.84375 -6.5625 L 5.84375 0 L 4.65625 0 L 1.75 -5.484375 L 1.75 0 L 0.890625 0 Z M 0.890625 -6.5625 "/>
</symbol>
<symbol overflow="visible" id="glyph0-3">
<path style="stroke:none;" d="M 0.890625 -6.5625 L 1.765625 -6.5625 L 1.765625 -3.875 L 5 -3.875 L 5 -6.5625 L 5.890625 -6.5625 L 5.890625 0 L 5 0 L 5 -3.125 L 1.765625 -3.125 L 1.765625 0 L 0.890625 0 Z M 0.890625 -6.5625 "/>
</symbol>
</g>
</defs>
<g id="surface22809">
<rect x="0" y="0" width="300" height="300" style="fill:rgb(100%,100%,100%);fill-opacity:1;stroke:none;"/>
<path style="fill:none;stroke-width:1.2;stroke-linecap:butt;stroke-linejoin:miter;stroke:rgb(100%,0%,0%);stroke-opacity:1;stroke-miterlimit:10;" d="M 201.28125 141.953125 L 207.8125 147.882812 "/>
<path style="fill:none;stroke-width:1.2;stroke-linecap:butt;stroke-linejoin:miter;stroke:rgb(0%,0%,0%);stroke-opacity:1;stroke-miterlimit:10;" d="M 207.8125 147.882812 L 214.34375 153.8125 "/>
<path style="fill:none;stroke-width:1.2;stroke-linecap:butt;stroke-linejoin:miter;stroke:rgb(100%,0%,0%);stroke-opacity:1;stroke-miterlimit:10;" d="M 201.28125 141.953125 L 192.878906 144.644531 "/>
<path style="fill:none;stroke-width:1.2;stroke-linecap:butt;stroke-linejoin:miter;stroke:rgb(0%,0%,0%);stroke-opacity:1;stroke-miterlimit:10;" d="M 192.878906 144.644531 L 184.480469 147.335938 "/>
<path style=" stroke:none;fill-rule:nonzero;fill:rgb(100%,100%,100%);fill-opacity:1;" d="M 197.28125 136.453125 L 205.28125 136.453125 L 205.28125 147.453125 L 197.28125 147.453125 Z M 197.28125 136.453125 "/>
<g style="fill:rgb(100%,0%,0%);fill-opacity:1;">
  <use xlink:href="#glyph0-1" x="197.28125" y="145.116211"/>
</g>
<path style="fill:none;stroke-width:1.2;stroke-linecap:butt;stroke-linejoin:miter;stroke:rgb(0%,0%,0%);stroke-opacity:1;stroke-miterlimit:10;" d="M 214.34375 153.8125 L 231.144531 148.429688 "/>
<path style="fill:none;stroke-width:1.2;stroke-linecap:butt;stroke-linejoin:miter;stroke:rgb(0%,0%,0%);stroke-opacity:1;stroke-miterlimit:10;" d="M 231.144531 148.429688 L 237.675781 154.359375 "/>
<path style="fill:none;stroke-width:1.2;stroke-linecap:butt;stroke-linejoin:miter;stroke:rgb(0%,0%,100%);stroke-opacity:1;stroke-miterlimit:10;" d="M 237.675781 154.359375 L 244.207031 160.289062 "/>
<path style="fill:none;stroke-width:1.2;stroke-linecap:butt;stroke-linejoin:miter;stroke:rgb(0%,0%,0%);stroke-opacity:1;stroke-miterlimit:10;" d="M 235.242188 146.542969 L 240.46875 151.285156 "/>
<path style="fill:none;stroke-width:1.2;stroke-linecap:butt;stroke-linejoin:miter;stroke:rgb(0%,0%,100%);stroke-opacity:1;stroke-miterlimit:10;" d="M 240.46875 151.285156 L 245.691406 156.027344 "/>
<path style="fill:none;stroke-width:1.2;stroke-linecap:butt;stroke-linejoin:miter;stroke:rgb(0%,0%,0%);stroke-opacity:1;stroke-miterlimit:10;" d="M 234.886719 131.1875 L 231.144531 148.429688 "/>
<path style="fill:none;stroke-width:1.2;stroke-linecap:butt;stroke-linejoin:miter;stroke:rgb(0%,0%,100%);stroke-opacity:1;stroke-miterlimit:10;" d="M 244.207031 160.289062 L 252.609375 157.597656 "/>
<path style="fill:none;stroke-width:1.2;stroke-linecap:butt;stroke-linejoin:miter;stroke:rgb(0%,0%,0%);stroke-opacity:1;stroke-miterlimit:10;" d="M 252.609375 157.597656 L 261.011719 154.90625 "/>
<path style=" stroke:none;fill-rule:nonzero;fill:rgb(100%,100%,100%);fill-opacity:1;" d="M 241.207031 154.789062 L 248.207031 154.789062 L 248.207031 165.789062 L 241.207031 165.789062 Z M 241.207031 154.789062 "/>
<g style="fill:rgb(0%,0%,100%);fill-opacity:1;">
  <use xlink:href="#glyph0-2" x="241.207031" y="163.452148"/>
</g>
<path style="fill:none;stroke-width:1.2;stroke-linecap:butt;stroke-linejoin:miter;stroke:rgb(0%,0%,0%);stroke-opacity:1;stroke-miterlimit:10;" d="M 261.011719 154.90625 L 264.75 137.664062 "/>
<path style="fill:none;stroke-width:1.2;stroke-linecap:butt;stroke-linejoin:miter;stroke:rgb(0%,0%,0%);stroke-opacity:1;stroke-miterlimit:10;" d="M 257.328125 152.300781 L 260.320312 138.507812 "/>
<path style="fill:none;stroke-width:1.2;stroke-linecap:butt;stroke-linejoin:miter;stroke:rgb(0%,0%,0%);stroke-opacity:1;stroke-miterlimit:10;" d="M 264.75 137.664062 L 251.6875 125.804688 "/>
<path style="fill:none;stroke-width:1.2;stroke-linecap:butt;stroke-linejoin:miter;stroke:rgb(0%,0%,0%);stroke-opacity:1;stroke-miterlimit:10;" d="M 251.6875 125.804688 L 234.886719 131.1875 "/>
<path style="fill:none;stroke-width:1.2;stroke-linecap:butt;stroke-linejoin:miter;stroke:rgb(0%,0%,0%);stroke-opacity:1;stroke-miterlimit:10;" d="M 251.273438 130.296875 L 237.832031 134.601562 "/>
<path style="fill:none;stroke-width:1.2;stroke-linecap:butt;stroke-linejoin:miter;stroke:rgb(0%,0%,0%);stroke-opacity:1;stroke-miterlimit:10;" d="M 184.480469 147.335938 L 171.417969 135.476562 "/>
<path style="fill:none;stroke-width:1.2;stroke-linecap:butt;stroke-linejoin:miter;stroke:rgb(0%,0%,0%);stroke-opacity:1;stroke-miterlimit:10;" d="M 180.382812 149.222656 L 169.933594 139.734375 "/>
<path style="fill:none;stroke-width:1.2;stroke-linecap:butt;stroke-linejoin:miter;stroke:rgb(0%,0%,0%);stroke-opacity:1;stroke-miterlimit:10;" d="M 180.738281 164.578125 L 184.480469 147.335938 "/>
<path style="fill:none;stroke-width:1.2;stroke-linecap:butt;stroke-linejoin:miter;stroke:rgb(0%,0%,0%);stroke-opacity:1;stroke-miterlimit:10;" d="M 171.417969 135.476562 L 154.613281 140.859375 "/>
<path style="fill:none;stroke-width:1.2;stroke-linecap:butt;stroke-linejoin:miter;stroke:rgb(0%,0%,0%);stroke-opacity:1;stroke-miterlimit:10;" d="M 154.613281 140.859375 L 150.875 158.101562 "/>
<path style="fill:none;stroke-width:1.2;stroke-linecap:butt;stroke-linejoin:miter;stroke:rgb(0%,0%,0%);stroke-opacity:1;stroke-miterlimit:10;" d="M 158.296875 143.460938 L 155.304688 157.257812 "/>
<path style="fill:none;stroke-width:1.2;stroke-linecap:butt;stroke-linejoin:miter;stroke:rgb(0%,0%,0%);stroke-opacity:1;stroke-miterlimit:10;" d="M 150.875 158.101562 L 163.9375 169.960938 "/>
<path style="fill:none;stroke-width:1.2;stroke-linecap:butt;stroke-linejoin:miter;stroke:rgb(0%,0%,0%);stroke-opacity:1;stroke-miterlimit:10;" d="M 150.875 158.101562 L 134.074219 163.484375 "/>
<path style="fill:none;stroke-width:1.2;stroke-linecap:butt;stroke-linejoin:miter;stroke:rgb(0%,0%,0%);stroke-opacity:1;stroke-miterlimit:10;" d="M 163.9375 169.960938 L 180.738281 164.578125 "/>
<path style="fill:none;stroke-width:1.2;stroke-linecap:butt;stroke-linejoin:miter;stroke:rgb(0%,0%,0%);stroke-opacity:1;stroke-miterlimit:10;" d="M 164.351562 165.46875 L 177.792969 161.164062 "/>
<path style="fill:none;stroke-width:1.2;stroke-linecap:butt;stroke-linejoin:miter;stroke:rgb(0%,0%,0%);stroke-opacity:1;stroke-miterlimit:10;" d="M 132.046875 163.042969 L 130.175781 171.664062 "/>
<path style="fill:none;stroke-width:1.2;stroke-linecap:butt;stroke-linejoin:miter;stroke:rgb(100%,0%,0%);stroke-opacity:1;stroke-miterlimit:10;" d="M 130.175781 171.664062 L 128.304688 180.285156 "/>
<path style="fill:none;stroke-width:1.2;stroke-linecap:butt;stroke-linejoin:miter;stroke:rgb(0%,0%,0%);stroke-opacity:1;stroke-miterlimit:10;" d="M 136.101562 163.925781 L 134.230469 172.546875 "/>
<path style="fill:none;stroke-width:1.2;stroke-linecap:butt;stroke-linejoin:miter;stroke:rgb(100%,0%,0%);stroke-opacity:1;stroke-miterlimit:10;" d="M 134.230469 172.546875 L 132.363281 181.167969 "/>
<path style="fill:none;stroke-width:1.2;stroke-linecap:butt;stroke-linejoin:miter;stroke:rgb(0%,0%,0%);stroke-opacity:1;stroke-miterlimit:10;" d="M 134.074219 163.484375 L 127.542969 157.554688 "/>
<path style="fill:none;stroke-width:1.2;stroke-linecap:butt;stroke-linejoin:miter;stroke:rgb(0%,0%,100%);stroke-opacity:1;stroke-miterlimit:10;" d="M 127.542969 157.554688 L 121.011719 151.625 "/>
<path style=" stroke:none;fill-rule:nonzero;fill:rgb(100%,100%,100%);fill-opacity:1;" d="M 126.335938 175.226562 L 134.335938 175.226562 L 134.335938 186.226562 L 126.335938 186.226562 Z M 126.335938 175.226562 "/>
<g style="fill:rgb(100%,0%,0%);fill-opacity:1;">
  <use xlink:href="#glyph0-1" x="126.335938" y="183.889648"/>
</g>
<path style="fill:none;stroke-width:1.2;stroke-linecap:butt;stroke-linejoin:miter;stroke:rgb(0%,0%,100%);stroke-opacity:1;stroke-miterlimit:10;" d="M 121.011719 151.625 L 112.609375 154.316406 "/>
<path style="fill:none;stroke-width:1.2;stroke-linecap:butt;stroke-linejoin:miter;stroke:rgb(0%,0%,0%);stroke-opacity:1;stroke-miterlimit:10;" d="M 112.609375 154.316406 L 104.207031 157.007812 "/>
<path style=" stroke:none;fill-rule:nonzero;fill:rgb(100%,100%,100%);fill-opacity:1;" d="M 114.011719 146.125 L 128.011719 146.125 L 128.011719 157.125 L 114.011719 157.125 Z M 114.011719 146.125 "/>
<g style="fill:rgb(0%,0%,100%);fill-opacity:1;">
  <use xlink:href="#glyph0-2" x="114.011719" y="154.788086"/>
  <use xlink:href="#glyph0-3" x="120.989258" y="154.788086"/>
</g>
<path style="fill:none;stroke-width:1.2;stroke-linecap:butt;stroke-linejoin:miter;stroke:rgb(0%,0%,0%);stroke-opacity:1;stroke-miterlimit:10;" d="M 104.207031 157.007812 L 91.144531 145.148438 "/>
<path style="fill:none;stroke-width:1.2;stroke-linecap:butt;stroke-linejoin:miter;stroke:rgb(0%,0%,0%);stroke-opacity:1;stroke-miterlimit:10;" d="M 100.113281 158.894531 L 89.660156 149.40625 "/>
<path style="fill:none;stroke-width:1.2;stroke-linecap:butt;stroke-linejoin:miter;stroke:rgb(0%,0%,0%);stroke-opacity:1;stroke-miterlimit:10;" d="M 100.46875 174.25 L 104.207031 157.007812 "/>
<path style="fill:none;stroke-width:1.2;stroke-linecap:butt;stroke-linejoin:miter;stroke:rgb(0%,0%,0%);stroke-opacity:1;stroke-miterlimit:10;" d="M 91.144531 145.148438 L 74.34375 150.53125 "/>
<path style="fill:none;stroke-width:1.2;stroke-linecap:butt;stroke-linejoin:miter;stroke:rgb(0%,0%,0%);stroke-opacity:1;stroke-miterlimit:10;" d="M 74.34375 150.53125 L 70.605469 167.773438 "/>
<path style="fill:none;stroke-width:1.2;stroke-linecap:butt;stroke-linejoin:miter;stroke:rgb(0%,0%,0%);stroke-opacity:1;stroke-miterlimit:10;" d="M 78.027344 153.136719 L 75.035156 166.929688 "/>
<path style="fill:none;stroke-width:1.2;stroke-linecap:butt;stroke-linejoin:miter;stroke:rgb(0%,0%,0%);stroke-opacity:1;stroke-miterlimit:10;" d="M 74.34375 150.53125 L 61.28125 138.671875 "/>
<path style="fill:none;stroke-width:1.2;stroke-linecap:butt;stroke-linejoin:miter;stroke:rgb(0%,0%,0%);stroke-opacity:1;stroke-miterlimit:10;" d="M 70.605469 167.773438 L 83.667969 179.632812 "/>
<path style="fill:none;stroke-width:1.2;stroke-linecap:butt;stroke-linejoin:miter;stroke:rgb(0%,0%,0%);stroke-opacity:1;stroke-miterlimit:10;" d="M 83.667969 179.632812 L 100.46875 174.25 "/>
<path style="fill:none;stroke-width:1.2;stroke-linecap:butt;stroke-linejoin:miter;stroke:rgb(0%,0%,0%);stroke-opacity:1;stroke-miterlimit:10;" d="M 84.082031 175.140625 L 97.523438 170.835938 "/>
<path style="fill:none;stroke-width:1.2;stroke-linecap:butt;stroke-linejoin:miter;stroke:rgb(0%,0%,0%);stroke-opacity:1;stroke-miterlimit:10;" d="M 100.46875 174.25 L 113.53125 186.109375 "/>
<path style="fill:none;stroke-width:1.2;stroke-linecap:butt;stroke-linejoin:miter;stroke:rgb(0%,0%,0%);stroke-opacity:1;stroke-miterlimit:10;" d="M 61.28125 138.671875 L 52.644531 140.46875 "/>
<path style="fill:none;stroke-width:1.2;stroke-linecap:butt;stroke-linejoin:miter;stroke:rgb(0%,0%,100%);stroke-opacity:1;stroke-miterlimit:10;" d="M 52.644531 140.46875 L 44.007812 142.269531 "/>
<path style="fill:none;stroke-width:1.2;stroke-linecap:butt;stroke-linejoin:miter;stroke:rgb(0%,0%,100%);stroke-opacity:1;stroke-miterlimit:10;" d="M 63.199219 121.132812 L 62.238281 129.902344 "/>
<path style="fill:none;stroke-width:1.2;stroke-linecap:butt;stroke-linejoin:miter;stroke:rgb(0%,0%,0%);stroke-opacity:1;stroke-miterlimit:10;" d="M 62.238281 129.902344 L 61.28125 138.671875 "/>
<path style="fill:none;stroke-width:1.2;stroke-linecap:butt;stroke-linejoin:miter;stroke:rgb(0%,0%,100%);stroke-opacity:1;stroke-miterlimit:10;" d="M 58.878906 122.4375 L 58.113281 129.453125 "/>
<path style="fill:none;stroke-width:1.2;stroke-linecap:butt;stroke-linejoin:miter;stroke:rgb(0%,0%,0%);stroke-opacity:1;stroke-miterlimit:10;" d="M 58.113281 129.453125 L 57.347656 136.46875 "/>
<path style="fill:none;stroke-width:1.2;stroke-linecap:butt;stroke-linejoin:miter;stroke:rgb(0%,0%,100%);stroke-opacity:1;stroke-miterlimit:10;" d="M 44.007812 142.269531 L 39.628906 134.609375 "/>
<path style="fill:none;stroke-width:1.2;stroke-linecap:butt;stroke-linejoin:miter;stroke:rgb(0%,0%,0%);stroke-opacity:1;stroke-miterlimit:10;" d="M 39.628906 134.609375 L 35.25 126.953125 "/>
<path style=" stroke:none;fill-rule:nonzero;fill:rgb(100%,100%,100%);fill-opacity:1;" d="M 37.007812 136.769531 L 51.007812 136.769531 L 51.007812 147.769531 L 37.007812 147.769531 Z M 37.007812 136.769531 "/>
<g style="fill:rgb(0%,0%,100%);fill-opacity:1;">
  <use xlink:href="#glyph0-2" x="37.007812" y="145.432617"/>
  <use xlink:href="#glyph0-3" x="43.985352" y="145.432617"/>
</g>
<path style="fill:none;stroke-width:1.2;stroke-linecap:butt;stroke-linejoin:miter;stroke:rgb(0%,0%,0%);stroke-opacity:1;stroke-miterlimit:10;" d="M 35.25 126.953125 L 47.109375 113.890625 "/>
<path style="fill:none;stroke-width:1.2;stroke-linecap:butt;stroke-linejoin:miter;stroke:rgb(0%,0%,0%);stroke-opacity:1;stroke-miterlimit:10;" d="M 39.507812 128.4375 L 48.996094 117.988281 "/>
<path style="fill:none;stroke-width:1.2;stroke-linecap:butt;stroke-linejoin:miter;stroke:rgb(0%,0%,0%);stroke-opacity:1;stroke-miterlimit:10;" d="M 47.109375 113.890625 L 55.152344 117.511719 "/>
<path style="fill:none;stroke-width:1.2;stroke-linecap:butt;stroke-linejoin:miter;stroke:rgb(0%,0%,100%);stroke-opacity:1;stroke-miterlimit:10;" d="M 55.152344 117.511719 L 63.199219 121.132812 "/>
<path style=" stroke:none;fill-rule:nonzero;fill:rgb(100%,100%,100%);fill-opacity:1;" d="M 60.199219 115.632812 L 67.199219 115.632812 L 67.199219 126.632812 L 60.199219 126.632812 Z M 60.199219 115.632812 "/>
<g style="fill:rgb(0%,0%,100%);fill-opacity:1;">
  <use xlink:href="#glyph0-2" x="60.199219" y="124.295898"/>
</g>
</g>
</svg>

<svg xmlns="http://www.w3.org/2000/svg" xmlns:xlink="http://www.w3.org/1999/xlink" width="300pt" height="300pt" viewBox="0 0 300 300"><defs><symbol overflow="visible"><path d="M.453 1.594v-7.938h4.5v7.938zm.5-.5h3.5v-6.938h-3.5zm0 0"/></symbol><symbol overflow="visible" id="a"><path d="M3.547-5.953c-.65 0-1.164.242-1.547.72-.375.48-.563 1.13-.563 1.952 0 .835.188 1.49.563 1.967.383.48.898.72 1.547.72.644 0 1.156-.24 1.53-.72.376-.476.564-1.132.564-1.968 0-.822-.187-1.474-.562-1.954-.375-.477-.887-.72-1.53-.72zm0-.734c.914 0 1.648.312 2.203.937.55.617.828 1.438.828 2.47 0 1.042-.277 1.87-.828 2.483-.555.617-1.29.922-2.203.922-.93 0-1.668-.305-2.22-.922C.774-1.41.5-2.237.5-3.28c0-1.033.273-1.853.828-2.47.55-.625 1.29-.938 2.22-.938zm0 0"/></symbol><symbol overflow="visible" id="b"><path d="M.89-6.563H2.08l2.906 5.485v-5.484h.86V0H4.656L1.75-5.484V0H.89zm0 0"/></symbol><symbol overflow="visible" id="c"><path d="M.89-6.563h.876v2.688H5v-2.688h.89V0H5v-3.125H1.766V0H.89zm0 0"/></symbol></defs><g><path fill="#fff" d="M0 0h300v300H0z"/><path d="M201.28 141.953l6.532 5.93" stroke-width="1.2" stroke="#f00" stroke-miterlimit="10" fill="none"/><path d="M207.813 147.883l6.53 5.93" stroke-width="1.2" stroke="#000" stroke-miterlimit="10" fill="none"/><path d="M201.28 141.953l-8.4 2.692" stroke-width="1.2" stroke="#f00" stroke-miterlimit="10" fill="none"/><path d="M192.88 144.645l-8.4 2.69" stroke-width="1.2" stroke="#000" stroke-miterlimit="10" fill="none"/><path d="M197.28 136.453h8v11h-8zm0 0" fill="#fff"/><use xlink:href="#a" x="197.281" y="145.116" fill="#f00"/><path d="M214.344 153.813l16.8-5.383M231.145 148.43l6.53 5.93" stroke-width="1.2" stroke="#000" stroke-miterlimit="10" fill="none"/><path d="M237.676 154.36l6.53 5.93" stroke-width="1.2" stroke="#00f" stroke-miterlimit="10" fill="none"/><path d="M235.242 146.543l5.227 4.742" stroke-width="1.2" stroke="#000" stroke-miterlimit="10" fill="none"/><path d="M240.47 151.285l5.22 4.742" stroke-width="1.2" stroke="#00f" stroke-miterlimit="10" fill="none"/><path d="M234.887 131.188l-3.742 17.242" stroke-width="1.2" stroke="#000" stroke-miterlimit="10" fill="none"/><path d="M244.207 160.29l8.402-2.692" stroke-width="1.2" stroke="#00f" stroke-miterlimit="10" fill="none"/><path d="M252.61 157.598l8.402-2.692" stroke-width="1.2" stroke="#000" stroke-miterlimit="10" fill="none"/><path d="M241.207 154.79h7v11h-7zm0 0" fill="#fff"/><use xlink:href="#b" x="241.207" y="163.452" fill="#00f"/><path d="M261.012 154.906l3.738-17.242M257.328 152.3l2.992-13.792M264.75 137.664l-13.063-11.86M251.688 125.805l-16.8 5.382M251.273 130.297l-13.44 4.305M184.48 147.336l-13.062-11.86M180.383 149.223l-10.45-9.49M180.738 164.578l3.742-17.242M171.418 135.477l-16.805 5.382M154.613 140.86l-3.738 17.242M158.297 143.46l-2.992 13.798M150.875 158.102l13.063 11.86M150.875 158.102l-16.8 5.382M163.938 169.96l16.8-5.382M164.352 165.47l13.44-4.306M132.047 163.043l-1.87 8.62" stroke-width="1.2" stroke="#000" stroke-miterlimit="10" fill="none"/><path d="M130.176 171.664l-1.87 8.62" stroke-width="1.2" stroke="#f00" stroke-miterlimit="10" fill="none"/><path d="M136.102 163.926l-1.872 8.62" stroke-width="1.2" stroke="#000" stroke-miterlimit="10" fill="none"/><path d="M134.23 172.547l-1.867 8.62" stroke-width="1.2" stroke="#f00" stroke-miterlimit="10" fill="none"/><path d="M134.074 163.484l-6.53-5.93" stroke-width="1.2" stroke="#000" stroke-miterlimit="10" fill="none"/><path d="M127.543 157.555l-6.53-5.93" stroke-width="1.2" stroke="#00f" stroke-miterlimit="10" fill="none"/><path d="M126.336 175.227h8v11h-8zm0 0" fill="#fff"/><use xlink:href="#a" x="126.336" y="183.89" fill="#f00"/><path d="M121.012 151.625l-8.403 2.69" stroke-width="1.2" stroke="#00f" stroke-miterlimit="10" fill="none"/><path d="M112.61 154.316l-8.403 2.692" stroke-width="1.2" stroke="#000" stroke-miterlimit="10" fill="none"/><path d="M114.012 146.125h14v11h-14zm0 0" fill="#fff"/><g fill="#00f"><use xlink:href="#b" x="114.012" y="154.788"/><use xlink:href="#c" x="120.989" y="154.788"/></g><path d="M104.207 157.008l-13.062-11.86M100.113 158.895l-10.453-9.49M100.47 174.25l3.737-17.242M91.145 145.148l-16.8 5.383M74.344 150.53l-3.74 17.243M78.027 153.137l-2.992 13.793M74.344 150.53L61.28 138.673M70.605 167.773l13.063 11.86M83.668 179.633l16.8-5.383M84.082 175.14l13.44-4.304M100.47 174.25l13.06 11.86M61.28 138.672l-8.635 1.797" stroke-width="1.2" stroke="#000" stroke-miterlimit="10" fill="none"/><path d="M52.645 140.47l-8.637 1.8M63.2 121.133l-.962 8.77" stroke-width="1.2" stroke="#00f" stroke-miterlimit="10" fill="none"/><path d="M62.238 129.902l-.957 8.77" stroke-width="1.2" stroke="#000" stroke-miterlimit="10" fill="none"/><path d="M58.88 122.438l-.767 7.015" stroke-width="1.2" stroke="#00f" stroke-miterlimit="10" fill="none"/><path d="M58.113 129.453l-.765 7.016" stroke-width="1.2" stroke="#000" stroke-miterlimit="10" fill="none"/><path d="M44.008 142.27l-4.38-7.66" stroke-width="1.2" stroke="#00f" stroke-miterlimit="10" fill="none"/><path d="M39.63 134.61l-4.38-7.657" stroke-width="1.2" stroke="#000" stroke-miterlimit="10" fill="none"/><path d="M37.008 136.77h14v11h-14zm0 0" fill="#fff"/><g fill="#00f"><use xlink:href="#b" x="37.008" y="145.433"/><use xlink:href="#c" x="43.985" y="145.433"/></g><path d="M35.25 126.953l11.86-13.062M39.508 128.438l9.488-10.45M47.11 113.89l8.042 3.622" stroke-width="1.2" stroke="#000" stroke-miterlimit="10" fill="none"/><path d="M55.152 117.512l8.047 3.62" stroke-width="1.2" stroke="#00f" stroke-miterlimit="10" fill="none"/><path d="M60.2 115.633h7v11h-7zm0 0" fill="#fff"/><use xlink:href="#b" x="60.199" y="124.296" fill="#00f"/></g></svg>
